X:1
T:Claudy Banks
M:4/4
L:1/4
K:G
 D| G D G B| G2 G B| A G A B| c3 B| G G B d| d2B/2-A/2 G| A2 A/2G/2 B|\
 A2 A3/2- B/2| c d B G| E D2 G| G E D E| D- G G- A| B B c A| G- AB/2-c/2 d|\
B/2-A/2 G A A| G3||
